X:1
T:Tell It with Joy
T:Tell It with Joy
T:William Howard Doane
T:Frances Jane (Fanny) Crosby, 1871
T:Public Domain Courtesy of the Cyber Hymnal™
T:Public Domain Courtesy of the Cyber Hymnal™
C:William Howard Doane
Z:Public Domain
Z:Courtesy of the Cyber Hymnal™
%%score ( 1 2 ) ( 3 4 )
L:1/8
Q:1/4=100
M:6/8
K:Eb
V:1 treble 
V:2 treble 
V:3 bass 
V:4 bass 
V:1
 [GB][GB][GB] [EG]3 | [GB][GB][GB] [EG]3 | [GB][Ac][GB] [GB][FA][EG] | [EG]3 [DF]2 z | %4
w: 1.~Tell it with joy,|tell it with joy;|Love in my bo- som is|glow- ing;|
w: 2.~Tell it with joy,|tell it with joy;|Won- der- ful, won- der- ful|sto- ry!|
w: 3.~Come un- to Him,|come un- to Him;|Mer- cy is ten- der- ly|plead- ing;|
 [EG]2 [EG] [EG]2 [FA] | [GB]3 [Ge]2 z | ([Fd][Fc])[Fd] [Fe]2 [Ec] | [DB]3- [DB]2 z | %8
w: Je- sus’ blood has|cleansed me,|Je- * sus makes me|free: *|
w: I was lost till|mer- cy|Gently * came down from|Heav’n: *|
w: Wea- ry, hea- vy|la- den,|Still * there’s room for|thee: *|
 [GB][GB][GB] [EG]3 | [GB][GB][GB] [EG]3 | [EB][Ec][EB] [EB][EA][EG] | [EG]3 [DF]2 z | %12
w: Tell it a- gain,|tell it a- gain;|O the sweet rap- ture of|par- don!|
w: Tell it with joy,|tell it with joy;|Now I am hap- py in|Je- sus;|
w: On- ly be- lieve,|on- ly be- lieve;|Je- sus is rea- dy and|will- ing;|
 [EG]2 [FA] [GB]2 [GB] | ([Ac]2 [Bd]) !fermata![Ae]2 [Ac] | [GB][FA][EG] [EG]2 [DF] | E3- E2 z || %16
w: Grace di- vine has|saved * me, And|Je- sus my all shall|be. *|
w: All is calm and|peace- * ful, And|all of my sins for-|giv’n. *|
w: All may come and|wel- * come, Sal-|va- tion for all is|free: *|
"^Refrain" [DF]3 [DB]2 [Ec] | [DB]3 [DF]3 | [Fd][Ec][DB] [Fd]2 [Ec] | [DB]3 [DF]3 | %20
w: Wea- ry and|lone- ly,|Seek- ing in vain for|plea- sure,|
w: I will a-|dore Him,|Je- sus, my dear Re-|deem- er,|
w: Why will ye|lin- ger?|Mer- cy is still en-|treat- ing;|
 [DF]3 [DB]2 [Ec] | [DB]3 [DF]3 | [Fd][Ec][DB] [Ec]2 [D=A] | [DB]3- [DB]2 z | [GB][GB][GB] [EG]3 | %25
w: Far from the|fold my|spir- it had gone as-|tray. *|Tell it a- gain,|
w: Yes I will|give Him|glo- ry from day to|day. *|Tell it with joy,|
w: Come and be|hap- py,|Come and with rap- ture|say— *|Tell it with joy,|
 [GB][GB][GB] [EG]3 | [EB][Ec][EB] [EB][EA][EG] | [EG]3 [DF]2 z | [EG]2 [FA] [GB]2 [GB] | %29
w: tell it a- gain;|O the sweet rap- ture of|par- don!|Grace di- vine has|
w: tell it with joy;|Now I am hap- py in|Je- sus;|All is calm and|
w: tell it with joy;|Now I am hap- py in|Je- sus;|All is calm and|
 ([Ac]2 [Bd]) !fermata![Ae]2 [Ac] | [GB][FA][EG] [EG]2 [DF] | E3- E2 z |] %32
w: saved * me, And|Je- sus my all shall|be. *|
w: peace- * ful, And|all of my sins for-|giv’n. *|
w: peace- * ful, And|all of my sins for-|giv’n. *|
V:2
 x6 | x6 | x6 | x6 | x6 | x6 | x6 | x6 | x6 | x6 | x6 | x6 | x6 | x6 | x6 | E3- E2 x || x6 | x6 | %18
 x6 | x6 | x6 | x6 | x6 | x6 | x6 | x6 | x6 | x6 | x6 | x6 | x6 | E3- E2 x |] %32
V:3
 [E,B,][E,B,][E,B,] [E,B,]3 | [E,B,][E,B,][E,B,] [E,B,]3 | [E,B,][E,B,][E,B,] [E,B,][E,B,][E,B,] | %3
 [B,,B,]3 [B,,B,]2 z | [E,B,]2 [E,B,] [E,B,]2 [E,B,] | [E,B,]3 [E,B,]2 z | %6
 ([F,B,][F,=A,])[F,B,] [F,C]2 [F,A,] | [B,,B,]3- [B,,B,]2 z | [E,B,][E,B,][E,B,] [E,B,]3 | %9
 [E,B,][E,B,][E,B,] [E,B,]3 | [E,G,][E,A,][E,G,] [E,G,][E,C][E,B,] | [B,,B,]3 [B,,B,]2 z | %12
 [E,B,]2 [E,B,] [E,E]2 [E,E] | [A,E]3 !fermata![A,C]2 [A,E] | [B,E]B,B, [B,,B,]2 [B,,A,] | %15
 [E,G,]3- [E,G,]2 z || [B,,B,]3 [B,,B,]2 [B,,B,] | [B,,B,]3 [B,,B,]3 | %18
 [B,,B,][B,,B,][B,,B,] [F,B,]2 [F,=A,] | [B,,B,]3 [B,,B,]3 | [B,,B,]3 [B,,B,]2 [B,,B,] | %21
 [B,,F,]3 [B,,B,]3 | [F,B,][F,=A,][F,B,] [F,A,]2 [F,C] | [B,,B,]3- [B,,B,]2 z | %24
 [E,B,][E,B,][E,B,] [E,B,]3 | [E,B,][E,B,][E,B,] [E,B,]3 | [E,G,][E,A,][E,G,] [E,G,][E,C][E,B,] | %27
 [B,,B,]3 [B,,B,]2 z | [E,B,]2 [E,B,] [E,E]2 [E,E] | [A,E]3 !fermata![A,C]2 [A,E] | %30
 [B,E]B,B, [B,,B,]2 [B,,A,] | [E,G,]3- [E,G,]2 z |] %32
V:4
 x6 | x6 | x6 | x6 | x6 | x6 | x6 | x6 | x6 | x6 | x6 | x6 | x6 | x6 | x B,B, x3 | x6 || x6 | x6 | %18
 x6 | x6 | x6 | x6 | x6 | x6 | x6 | x6 | x6 | x6 | x6 | x6 | x B,B, x3 | x6 |] %32

